X:311
T: Kukorékol a kis kakas
M:4/4
L:1/4
K:C
C<E G c | B<A F<D | G<F E<D | C2 C z |
CE G<c |  B>A F D | B>A GF | C2 C z |
c c/c/ c c/c/ | c e d<c | dc B/A/^G/A/ F2 D z |
C E G c/c/ | B/B/A/A/ F<D | G>F E<D | C2 C z |


